assets/features/resources.svg

<?xml version="1.0" encoding="UTF-8"?>
<svg width="16px" height="16px" viewBox="0 0 16 16" version="1.1" xmlns="http://www.w3.org/2000/svg" xmlns:xlink="http://www.w3.org/1999/xlink">
    <!-- Generator: Sketch 49.2 (51160) - http://www.bohemiancoding.com/sketch -->
    <title>Resources</title>
    <desc>Created with Sketch.</desc>
    <defs></defs>
    <g id="Resources-16px" stroke="none" stroke-width="1" fill="none" fill-rule="evenodd">
        <g id="Group-5" transform="translate(1.031250, 2.625000)" fill="#689BFF" fill-rule="nonzero">
            <g id="Group-4" transform="translate(0.000000, 0.023649)">
                <path d="M13.3355825,10.1837146 L13.1040768,7.95482896 C13.0945039,7.86266284 13.0168277,7.79263672 12.9241658,7.79263672 L10.4012876,7.79263672 C10.3086257,7.79263672 10.2309495,7.86266284 10.2213765,7.95482896 L9.98987083,10.1837146 L13.3355825,10.1837146 Z M10.4012876,7.25 L12.9241658,7.25 C13.2948135,7.25 13.6055182,7.53010447 13.64381,7.89876897 L13.9167719,10.5267858 C13.9270923,10.6261479 13.8549096,10.7150631 13.7555475,10.7253835 C13.7493395,10.7260283 13.7431023,10.7263514 13.7368608,10.7263514 L9.58859252,10.7263514 C9.48869586,10.7263514 9.40771362,10.6453691 9.40771362,10.5454724 C9.40771362,10.539231 9.40803667,10.5329938 9.40868147,10.5267858 L9.68164338,7.89876897 C9.71993513,7.53010447 10.0306398,7.25 10.4012876,7.25 Z M5.70731091,7.25 L8.23018909,7.25 C8.60083686,7.25 8.91154155,7.53010447 8.9498333,7.89876897 L9.22279521,10.5267858 C9.23311557,10.6261479 9.16093296,10.7150631 9.06157082,10.7253835 C9.05536281,10.7260283 9.04912557,10.7263514 9.04288416,10.7263514 L4.89461584,10.7263514 C4.79471918,10.7263514 4.71373693,10.6453691 4.71373693,10.5454724 C4.71373693,10.539231 4.71405998,10.5329938 4.71470479,10.5267858 L4.9876667,7.89876897 C5.02595845,7.53010447 5.33666314,7.25 5.70731091,7.25 Z M8.64160585,10.1837146 L8.41010014,7.95482896 C8.4005272,7.86266284 8.32285103,7.79263672 8.23018909,7.79263672 L5.70731091,7.79263672 C5.61464897,7.79263672 5.5369728,7.86266284 5.52739986,7.95482896 L5.29589415,10.1837146 L8.64160585,10.1837146 Z M1.01333423,7.25 L3.5362124,7.25 C3.90686018,7.25 4.21756487,7.53010447 4.25585662,7.89876897 L4.52881853,10.5267858 C4.53913889,10.6261479 4.46695627,10.7150631 4.36759414,10.7253835 C4.36138612,10.7260283 4.35514889,10.7263514 4.34890748,10.7263514 L0.200639156,10.7263514 C0.100742494,10.7263514 0.0197602493,10.6453691 0.0197602493,10.5454724 C0.0197602493,10.539231 0.0200832989,10.5329938 0.0207281016,10.5267858 L0.293690013,7.89876897 C0.331981765,7.53010447 0.642686455,7.25 1.01333423,7.25 Z M0.601917467,10.1837146 L3.94762917,10.1837146 L3.71612346,7.95482896 C3.70655052,7.86266284 3.62887435,7.79263672 3.5362124,7.79263672 L1.01333423,7.79263672 C0.920672286,7.79263672 0.842996113,7.86266284 0.833423175,7.95482896 L0.601917467,10.1837146 Z M5.70731091,0.00760135135 L8.23018909,0.00760135135 C8.60083686,0.00760135135 8.91154155,0.287705823 8.9498333,0.656370323 L9.22279521,3.28438713 C9.23311557,3.38374926 9.16093296,3.47266449 9.06157082,3.48298485 C9.05536281,3.48362965 9.04912557,3.4839527 9.04288416,3.4839527 L4.89461584,3.4839527 C4.79471918,3.4839527 4.71373693,3.40297046 4.71373693,3.3030738 C4.71373693,3.29683238 4.71405998,3.29059515 4.71470479,3.28438713 L4.9876667,0.656370323 C5.02595845,0.287705823 5.33666314,0.00760135135 5.70731091,0.00760135135 Z M8.64160585,2.94131598 L8.41010014,0.712430313 C8.4005272,0.620264188 8.32285103,0.55023807 8.23018909,0.55023807 L5.70731091,0.55023807 C5.61464897,0.55023807 5.5369728,0.620264188 5.52739986,0.712430313 L5.29589415,2.94131598 L8.64160585,2.94131598 Z M8.05429925,3.62880068 L10.5771774,3.62880068 C10.9478252,3.62880068 11.2585299,3.90890515 11.2968216,4.27756965 L11.5697836,6.90558646 C11.5801039,7.00494859 11.5079213,7.09386382 11.4085592,7.10418417 C11.4023511,7.10482898 11.3961139,7.10515203 11.3898725,7.10515203 L7.24160418,7.10515203 C7.14170752,7.10515203 7.06072528,7.02416978 7.06072528,6.92427312 C7.06072528,6.91803171 7.06104832,6.91179448 7.06169313,6.90558646 L7.33465504,4.27756965 C7.37294679,3.90890515 7.68365148,3.62880068 8.05429925,3.62880068 Z M10.9885942,6.56251531 L10.7570885,4.33362964 C10.7475155,4.24146351 10.6698394,4.17143739 10.5771774,4.17143739 L8.05429925,4.17143739 C7.96163731,4.17143739 7.88396114,4.24146351 7.8743882,4.33362964 L7.64288249,6.56251531 L10.9885942,6.56251531 Z M3.36032257,3.62880068 L5.88320075,3.62880068 C6.25384852,3.62880068 6.56455321,3.90890515 6.60284496,4.27756965 L6.87580687,6.90558646 C6.88612723,7.00494859 6.81394461,7.09386382 6.71458248,7.10418417 C6.70837446,7.10482898 6.70213723,7.10515203 6.69589582,7.10515203 L2.5476275,7.10515203 C2.44773084,7.10515203 2.36674859,7.02416978 2.36674859,6.92427312 C2.36674859,6.91803171 2.36707164,6.91179448 2.36771644,6.90558646 L2.64067836,4.27756965 C2.67897011,3.90890515 2.9896748,3.62880068 3.36032257,3.62880068 Z M6.29461751,6.56251531 L6.0631118,4.33362964 C6.05353886,4.24146351 5.97586269,4.17143739 5.88320075,4.17143739 L3.36032257,4.17143739 C3.26766063,4.17143739 3.18998445,4.24146351 3.18041152,4.33362964 L2.94890581,6.56251531 L6.29461751,6.56251531 Z" id="Combined-Shape"></path>
            </g>
        </g>
    </g>
</svg>

<?xml version="1.0" encoding="UTF-8" standalone="no"?>
<svg
   xmlns:dc="http://purl.org/dc/elements/1.1/"
   xmlns:cc="http://creativecommons.org/ns#"
   xmlns:rdf="http://www.w3.org/1999/02/22-rdf-syntax-ns#"
   xmlns:svg="http://www.w3.org/2000/svg"
   xmlns="http://www.w3.org/2000/svg"
   xmlns:sodipodi="http://sodipodi.sourceforge.net/DTD/sodipodi-0.dtd"
   xmlns:inkscape="http://www.inkscape.org/namespaces/inkscape"
   width="16px"
   height="16px"
   viewBox="0 0 16 16"
   version="1.1"
   id="svg12"
   sodipodi:docname="resources.svg"
   inkscape:version="0.92.3 (2405546, 2018-03-11)">
  <metadata
     id="metadata16">
    <rdf:RDF>
      <cc:Work
         rdf:about="">
        <dc:format>image/svg+xml</dc:format>
        <dc:type
           rdf:resource="http://purl.org/dc/dcmitype/StillImage" />
        <dc:title>Resources</dc:title>
      </cc:Work>
    </rdf:RDF>
  </metadata>
  <sodipodi:namedview
     pagecolor="#ffffff"
     bordercolor="#666666"
     borderopacity="1"
     objecttolerance="10"
     gridtolerance="10"
     guidetolerance="10"
     inkscape:pageopacity="0"
     inkscape:pageshadow="2"
     inkscape:window-width="2560"
     inkscape:window-height="1346"
     id="namedview14"
     showgrid="false"
     inkscape:zoom="14.75"
     inkscape:cx="8"
     inkscape:cy="8"
     inkscape:window-x="-11"
     inkscape:window-y="-11"
     inkscape:window-maximized="1"
     inkscape:current-layer="svg12" />
  <!-- Generator: Sketch 49.2 (51160) - http://www.bohemiancoding.com/sketch -->
  <title
     id="title2">Resources</title>
  <desc
     id="desc4">Created with Sketch.</desc>
  <defs
     id="defs6" />
  <g
     id="Resources-16px"
     transform="matrix(1.1512453,0,0,1.1512453,-1.2099707,-1.2279508)"
     style="fill:none;fill-rule:evenodd;stroke:none;stroke-width:1">
    <g
       id="Group-5"
       transform="translate(1.03125,2.625)"
       style="fill:#689bff;fill-rule:nonzero">
      <g
         id="Group-4"
         transform="translate(0,0.023649)">
        <path
           d="M 13.335582,10.183715 13.104077,7.954829 c -0.0096,-0.092166 -0.08725,-0.1621923 -0.179911,-0.1621923 h -2.522878 c -0.09266,0 -0.170339,0.070026 -0.179911,0.1621923 L 9.9898708,10.183715 Z M 10.401288,7.25 h 2.522878 c 0.370648,0 0.681352,0.2801045 0.719644,0.648769 l 0.272962,2.628017 c 0.01032,0.09936 -0.06186,0.188277 -0.161224,0.198598 -0.0062,6.44e-4 -0.01245,9.67e-4 -0.01869,9.67e-4 H 9.5885925 c -0.099897,0 -0.1808789,-0.08098 -0.1808789,-0.180879 0,-0.0062 3.231e-4,-0.01248 9.679e-4,-0.01869 L 9.6816434,7.898769 C 9.7199351,7.5301045 10.03064,7.25 10.401288,7.25 Z m -4.6939771,0 h 2.5228782 c 0.3706478,0 0.6813525,0.2801045 0.7196442,0.648769 l 0.2729619,2.628017 c 0.01032,0.09936 -0.061862,0.188277 -0.1612244,0.198598 -0.00621,6.44e-4 -0.012445,9.67e-4 -0.018687,9.67e-4 h -4.148268 c -0.099897,0 -0.1808789,-0.08098 -0.1808789,-0.180879 0,-0.0062 3.231e-4,-0.01248 9.679e-4,-0.01869 L 4.9876667,7.898769 C 5.0259584,7.5301045 5.3366631,7.25 5.7073109,7.25 Z M 8.6416059,10.183715 8.4101001,7.954829 C 8.4005272,7.8626628 8.322851,7.7926367 8.2301891,7.7926367 H 5.7073109 c -0.092662,0 -0.1703381,0.070026 -0.179911,0.1621923 L 5.2958941,10.183715 Z M 1.0133342,7.25 h 2.5228782 c 0.3706478,0 0.6813525,0.2801045 0.7196442,0.648769 l 0.2729619,2.628017 c 0.01032,0.09936 -0.061862,0.188277 -0.1612244,0.198598 -0.00621,6.44e-4 -0.012445,9.67e-4 -0.018687,9.67e-4 H 0.20063916 c -0.0998967,0 -0.18087891,-0.08098 -0.18087891,-0.180879 0,-0.0062 3.2305e-4,-0.01248 9.6785e-4,-0.01869 L 0.29369001,7.898769 C 0.33198177,7.5301045 0.64268646,7.25 1.0133342,7.25 Z M 0.60191747,10.183715 H 3.9476292 L 3.7161235,7.954829 C 3.7065505,7.8626628 3.6288743,7.7926367 3.5362124,7.7926367 H 1.0133342 c -0.0926619,0 -0.17033809,0.070026 -0.17991103,0.1621923 z M 5.7073109,0.00760135 h 2.5228782 c 0.3706478,0 0.6813525,0.28010447 0.7196442,0.64876897 L 9.2227952,3.2843871 c 0.01032,0.099362 -0.061862,0.1882774 -0.1612244,0.1985977 -0.00621,6.449e-4 -0.012445,9.679e-4 -0.018687,9.679e-4 h -4.148268 c -0.099897,0 -0.1808789,-0.080982 -0.1808789,-0.1808789 0,-0.00624 3.231e-4,-0.012479 9.679e-4,-0.018687 L 4.9876667,0.65637032 C 5.0259584,0.28770582 5.3366631,0.00760135 5.7073109,0.00760135 Z M 8.6416059,2.941316 8.4101001,0.71243031 C 8.4005272,0.62026419 8.322851,0.55023807 8.2301891,0.55023807 H 5.7073109 c -0.092662,0 -0.1703381,0.0700261 -0.179911,0.16219224 L 5.2958941,2.941316 Z M 8.0542993,3.6288007 h 2.5228777 c 0.370648,0 0.681353,0.2801044 0.719645,0.6487689 l 0.272962,2.6280169 c 0.01032,0.099362 -0.06186,0.1882773 -0.161225,0.1985977 -0.0062,6.448e-4 -0.01244,9.678e-4 -0.01869,9.678e-4 H 7.2416042 c -0.099897,0 -0.1808789,-0.080982 -0.1808789,-0.1808789 0,-0.00624 3.23e-4,-0.012479 9.678e-4,-0.018687 L 7.334655,4.2775696 C 7.3729468,3.9089051 7.6836515,3.6288007 8.0542993,3.6288007 Z M 10.988594,6.5625153 10.757089,4.3336296 c -0.0096,-0.092166 -0.08725,-0.1621922 -0.179912,-0.1621922 H 8.0542993 c -0.092662,0 -0.1703382,0.070026 -0.1799111,0.1621922 L 7.6428825,6.5625153 Z M 3.3603226,3.6288007 h 2.5228782 c 0.3706477,0 0.6813524,0.2801044 0.7196442,0.6487689 l 0.2729619,2.6280169 c 0.01032,0.099362 -0.061862,0.1882773 -0.1612244,0.1985977 -0.00621,6.448e-4 -0.012445,9.678e-4 -0.018687,9.678e-4 h -4.148268 c -0.099897,0 -0.1808789,-0.080982 -0.1808789,-0.1808789 0,-0.00624 3.23e-4,-0.012479 9.678e-4,-0.018687 L 2.6406784,4.2775696 C 2.6789701,3.9089051 2.9896748,3.6288007 3.3603226,3.6288007 Z M 6.2946175,6.5625153 6.0631118,4.3336296 C 6.0535389,4.2414635 5.9758627,4.1714374 5.8832008,4.1714374 H 3.3603226 c -0.092662,0 -0.1703381,0.070026 -0.1799111,0.1621922 L 2.9489058,6.5625153 Z"
           id="Combined-Shape"
           inkscape:connector-curvature="0" />
      </g>
    </g>
  </g>
</svg>
